X: 36843
T: Ships Are Sailing, The
R: reel
M: 4/4
K: Adorian
AB|cAB^G A=GEF|GABc dBGB|cAB^G A=GED|EAA^G A2AB|
cAB^G A=GEF|GABc dBGB|cAB^G A=GED|EAA^G A2||
AB|cdef g2eg|a2ed cAAB|cdef gfgd|eaa^g a2AB|
cdef g2eg|aged cAAB|cAB^G A=GED|EAA^G A2||

